public/logos/UL.svg

<?xml version="1.0" encoding="UTF-8"?>
<svg xmlns="http://www.w3.org/2000/svg" xmlns:xlink="http://www.w3.org/1999/xlink" width="176pt" height="31.52pt" viewBox="0 0 176 31.52" version="1.1">
<defs>
<clipPath id="clip1">
  <path d="M 0 0 L 44 0 L 44 31.519531 L 0 31.519531 Z M 0 0 "/>
</clipPath>
</defs>
<g id="surface1">
<path style=" stroke:none;fill-rule:evenodd;fill:rgb(15.986633%,57.989502%,24.995422%);fill-opacity:1;" d="M 6.765625 26.597656 C 13.367188 26.238281 20.21875 23.007812 23.035156 17.015625 C 24.804688 13.257812 27.234375 10.6875 30.21875 9.640625 C 26.1875 10.605469 24.085938 11.792969 22.152344 13.644531 C 19.28125 16.378906 19.96875 17.179688 16.214844 21.238281 C 12.566406 25.023438 8.039062 26.183594 6.765625 26.597656 "/>
<path style=" stroke:none;fill-rule:evenodd;fill:rgb(93.649292%,30.525208%,11.924744%);fill-opacity:1;" d="M 24.003906 28.007812 C 27.730469 26.046875 29.886719 24.472656 31.765625 21.296875 C 33.613281 18.148438 33.089844 14.308594 35.519531 11.378906 C 34.03125 16.738281 36.597656 19.25 33.3125 23.945312 C 30.105469 28.503906 24.003906 28.007812 24.003906 28.007812 "/>
<g clip-path="url(#clip1)" clip-rule="nonzero">
<path style=" stroke:none;fill-rule:evenodd;fill:rgb(84.968567%,9.20105%,25.126648%);fill-opacity:1;" d="M 41.984375 1.269531 C 42.148438 1.269531 42.261719 1.410156 42.261719 1.546875 C 42.261719 1.710938 42.148438 1.820312 41.984375 1.820312 L 41.984375 4.03125 C 42.039062 3.839844 42.066406 3.644531 42.09375 3.453125 C 42.398438 1.351562 42.867188 0.578125 43.503906 0 C 42.953125 0.0546875 42.398438 0.386719 41.984375 0.800781 Z M 41.984375 1.820312 C 41.820312 1.820312 41.707031 1.710938 41.707031 1.546875 C 41.707031 1.410156 41.820312 1.269531 41.984375 1.269531 L 41.984375 0.800781 C 41.707031 1.074219 41.488281 1.378906 41.347656 1.65625 C 40.878906 1.65625 40.1875 2.042969 39.941406 2.816406 C 39.800781 3.285156 39.46875 3.480469 39.46875 3.480469 C 39.46875 3.480469 40.300781 3.394531 40.546875 2.652344 C 40.6875 2.207031 41.015625 1.90625 41.292969 1.820312 C 40.632812 3.09375 40.824219 5.300781 37.371094 7.234375 C 32.925781 9.445312 28.285156 9.5 25.578125 14.472656 C 24.363281 16.710938 23.421875 19.445312 21.324219 21.710938 C 15.277344 28.28125 6.710938 30.632812 0 31.515625 C 8.5625 31.625 19.28125 29.71875 26.65625 24.445312 C 30.90625 21.378906 31.625 18.089844 32.953125 14.195312 C 34.582031 9.445312 40.632812 9.609375 41.984375 4.03125 L 41.984375 1.820312 "/>
</g>
<path style=" stroke:none;fill-rule:evenodd;fill:rgb(22.479248%,52.099609%,77.11792%);fill-opacity:1;" d="M 37.921875 21.960938 C 37.886719 23.582031 39.726562 24.613281 41.792969 24.652344 C 43.816406 24.6875 44.703125 23.878906 44.996094 22.773438 C 45.953125 18.941406 36.597656 18.609375 38.734375 14.003906 C 39.914062 11.5 43.707031 11.90625 45.253906 12.53125 C 46.839844 13.15625 46.800781 14.078125 46.730469 14.851562 C 46.324219 13.453125 44.371094 12.714844 42.050781 13.121094 C 39.175781 13.597656 39.542969 16.289062 43.117188 17.910156 C 44.996094 18.757812 47.429688 19.972656 47.167969 22.292969 C 46.761719 26.125 40.464844 26.9375 38.253906 24.46875 C 37.8125 23.988281 37.589844 23.105469 37.921875 21.960938 "/>
<path style=" stroke:none;fill-rule:evenodd;fill:rgb(22.479248%,52.099609%,77.11792%);fill-opacity:1;" d="M 48.976562 15.699219 L 50.816406 15.699219 C 51.113281 15.957031 51.113281 16.472656 51.113281 16.730469 C 51.589844 16.214844 51.996094 15.734375 52.992188 15.625 C 53.984375 15.515625 54.5 16.105469 54.683594 16.363281 C 53.507812 15.921875 52.292969 16.105469 51.257812 18.535156 C 50.890625 19.457031 50.632812 21.261719 50.558594 23.179688 C 50.484375 24.613281 50.707031 25.238281 51.039062 25.570312 L 49.160156 25.570312 C 49.085938 25.570312 48.644531 23.949219 49.011719 21.554688 C 49.34375 19.199219 49.34375 18.867188 49.378906 17.835938 C 49.378906 16.546875 49.417969 16.289062 48.976562 15.699219 "/>
<path style=" stroke:none;fill-rule:evenodd;fill:rgb(15.119934%,27.392578%,58.433533%);fill-opacity:1;" d="M 74.6875 15.699219 L 76.53125 15.699219 C 76.824219 15.957031 76.863281 16.765625 76.863281 17.578125 C 77.378906 16.621094 78.742188 15.332031 81.136719 15.441406 C 83.53125 15.515625 84.523438 17.46875 84.265625 19.050781 C 84.007812 20.671875 83.640625 24.796875 84.488281 25.570312 L 82.867188 25.570312 C 82.390625 25.09375 82.390625 24.0625 82.425781 22.367188 C 82.496094 20.636719 83.273438 18.351562 82.464844 17.394531 C 81.28125 16.066406 77.710938 16.363281 76.863281 18.867188 C 76.308594 20.5625 76.347656 21.261719 76.273438 23.179688 C 76.199219 24.613281 76.417969 25.238281 76.75 25.570312 L 74.875 25.570312 C 74.800781 25.570312 74.359375 23.949219 74.726562 21.554688 C 74.910156 20.230469 75.574219 16.914062 74.6875 15.699219 "/>
<path style=" stroke:none;fill-rule:evenodd;fill:rgb(15.119934%,27.392578%,58.433533%);fill-opacity:1;" d="M 104.859375 15.699219 L 106.703125 15.699219 C 106.996094 15.957031 107.03125 16.765625 107.03125 17.578125 C 107.550781 16.621094 108.910156 15.332031 111.308594 15.441406 C 113.664062 15.515625 114.695312 17.46875 114.4375 19.050781 C 114.179688 20.671875 113.773438 24.796875 114.660156 25.570312 L 113.003906 25.570312 C 112.5625 25.09375 112.5625 24.0625 112.597656 22.367188 C 112.632812 20.636719 113.445312 18.351562 112.597656 17.394531 C 111.417969 16.066406 107.882812 16.363281 107.03125 18.867188 C 106.441406 20.5625 106.519531 21.261719 106.441406 23.179688 C 106.371094 24.613281 106.59375 25.238281 106.925781 25.570312 L 105.007812 25.570312 C 104.972656 25.570312 104.527344 23.949219 104.859375 21.554688 C 105.082031 20.230469 105.710938 16.914062 104.859375 15.699219 "/>
<path style=" stroke:none;fill-rule:evenodd;fill:rgb(22.479248%,52.099609%,77.11792%);fill-opacity:1;" d="M 55.496094 15.699219 C 56.085938 16.507812 55.972656 17.429688 55.972656 17.429688 C 55.972656 17.429688 55.457031 21.226562 55.386719 22.734375 C 55.3125 24.171875 55.347656 24.984375 55.679688 25.570312 L 57.484375 25.570312 C 57.003906 25.019531 57.082031 23.695312 57.117188 22.625 C 57.226562 20.964844 57.410156 19.382812 57.59375 17.871094 C 57.78125 16.175781 56.414062 15.847656 55.496094 15.699219 "/>
<path style=" stroke:none;fill-rule:evenodd;fill:rgb(22.479248%,52.099609%,77.11792%);fill-opacity:1;" d="M 56.414062 12.234375 C 57.003906 12.234375 57.523438 12.714844 57.523438 13.304688 C 57.523438 13.929688 57.003906 14.410156 56.414062 14.410156 C 55.828125 14.410156 55.347656 13.929688 55.347656 13.304688 C 55.347656 12.714844 55.828125 12.234375 56.414062 12.234375 "/>
<path style=" stroke:none;fill-rule:evenodd;fill:rgb(15.119934%,27.392578%,58.433533%);fill-opacity:1;" d="M 65.480469 17.28125 C 65.480469 17.28125 66.363281 15.589844 69.199219 15.441406 C 72.035156 15.292969 72.664062 16.105469 73.105469 16.914062 C 73.582031 17.726562 72.808594 20.414062 72.734375 22.109375 C 72.699219 23.765625 72.699219 24.984375 73.140625 25.570312 L 71.335938 25.570312 C 71.152344 24.910156 71.078125 24.0625 71.078125 23.140625 C 71.078125 22.183594 71.226562 20.230469 71.335938 19.421875 C 71.078125 19.75 70.082031 20.191406 68.867188 20.5625 C 67.617188 20.929688 65.109375 21.960938 65.847656 23.765625 C 66.253906 24.761719 67.359375 24.945312 68.390625 24.6875 C 69.238281 24.503906 69.972656 24.0625 70.378906 23.65625 C 70.304688 23.804688 70.15625 23.988281 70.046875 24.136719 C 69.496094 24.726562 68.609375 25.277344 67.285156 25.570312 C 65.589844 25.90625 64.410156 25.425781 62.9375 25.351562 C 61.425781 25.277344 59.730469 25.570312 59.730469 25.570312 C 59.730469 25.570312 59.328125 24.835938 59.4375 22.996094 C 59.546875 21.152344 59.917969 18.867188 59.917969 16.84375 C 59.988281 14.960938 60.027344 13.15625 59.546875 12.234375 L 61.355469 12.234375 C 61.464844 12.679688 61.757812 14.152344 61.648438 17.097656 C 61.539062 20.007812 61.019531 21.925781 61.207031 24.136719 C 64.816406 23.949219 64.78125 25.058594 66.289062 25.132812 C 65.882812 24.984375 65.515625 24.796875 65.21875 24.429688 C 64.375 23.472656 64.152344 22.035156 65.257812 21.003906 C 66.398438 19.9375 71.335938 19.640625 71.445312 18.019531 C 71.632812 15.773438 67.835938 15.734375 65.480469 17.28125 "/>
<path style=" stroke:none;fill-rule:evenodd;fill:rgb(15.119934%,27.392578%,58.433533%);fill-opacity:1;" d="M 95.652344 17.28125 C 95.652344 17.28125 96.535156 15.589844 99.410156 15.441406 C 102.246094 15.292969 102.835938 16.105469 103.3125 16.914062 C 103.753906 17.726562 102.980469 20.414062 102.945312 22.109375 C 102.871094 23.765625 102.90625 24.984375 103.3125 25.570312 L 101.546875 25.570312 C 101.359375 24.910156 101.285156 24.0625 101.285156 23.140625 C 101.285156 22.183594 101.433594 20.230469 101.546875 19.421875 C 101.25 19.75 100.292969 20.230469 99.039062 20.597656 C 97.824219 20.964844 95.320312 21.816406 96.054688 23.765625 C 96.792969 25.71875 99.816406 24.429688 100.550781 23.695312 C 99.628906 25.390625 96.535156 26.640625 94.988281 24.871094 C 94.175781 23.914062 94.066406 22.257812 95.578125 21.003906 C 97.050781 19.75 101.507812 19.640625 101.65625 18.019531 C 101.839844 15.773438 98.042969 15.734375 95.652344 17.28125 "/>
<path style=" stroke:none;fill-rule:evenodd;fill:rgb(15.119934%,27.392578%,58.433533%);fill-opacity:1;" d="M 94.804688 15.476562 C 92.078125 16.289062 91.265625 17.871094 89.460938 19.75 C 91.121094 21.335938 91.929688 24.542969 94.25 25.570312 L 92.261719 25.570312 C 89.867188 24.0625 89.3125 21.003906 87.730469 19.789062 C 87.582031 21.1875 87.4375 22.773438 87.4375 23.4375 C 87.4375 24.46875 87.511719 25.203125 87.839844 25.570312 L 86 25.570312 C 85.667969 25.019531 85.667969 24.0625 85.738281 22.84375 C 85.851562 20.929688 86.109375 18.574219 86.144531 17.542969 C 86.183594 15.957031 86.257812 12.75 85.816406 12.234375 L 87.65625 12.234375 C 87.988281 14.152344 87.914062 16.695312 87.878906 17.761719 C 87.878906 18.132812 87.804688 18.792969 87.730469 19.566406 C 89.683594 18.058594 90.457031 15.625 94.804688 15.476562 "/>
<path style=" stroke:none;fill-rule:evenodd;fill:rgb(22.479248%,52.099609%,77.11792%);fill-opacity:1;" d="M 169.230469 22.601562 C 169.230469 23.710938 170.527344 24.449219 172.101562 24.542969 C 173.578125 24.542969 174.222656 23.988281 174.40625 23.15625 C 175.148438 20.472656 168.21875 20.199219 169.789062 16.960938 C 170.710938 15.113281 173.484375 15.390625 174.597656 15.855469 C 175.800781 16.316406 175.800781 16.960938 175.703125 17.515625 C 175.429688 16.5 173.949219 15.855469 172.28125 16.316406 C 170.160156 16.867188 170.894531 18.535156 173.300781 19.550781 C 174.597656 20.101562 176.164062 21.125 175.984375 22.785156 C 175.703125 25.558594 171.175781 26.117188 169.511719 24.355469 C 169.230469 23.988281 168.953125 23.433594 169.230469 22.601562 "/>
<path style=" stroke:none;fill-rule:evenodd;fill:rgb(22.479248%,52.099609%,77.11792%);fill-opacity:1;" d="M 135.394531 15.757812 L 137.152344 15.757812 C 137.425781 16.035156 137.425781 16.5 137.425781 16.777344 C 137.894531 16.222656 138.261719 15.757812 139.183594 15.667969 C 140.105469 15.574219 140.660156 16.128906 140.757812 16.410156 C 139.644531 15.941406 138.539062 16.128906 137.519531 18.441406 C 137.152344 19.277344 136.964844 21.027344 136.871094 22.878906 C 136.78125 24.265625 137.058594 24.820312 137.335938 25.101562 L 135.484375 25.101562 C 135.484375 25.101562 135.019531 23.621094 135.394531 21.308594 C 135.765625 19.085938 135.671875 18.71875 135.765625 17.792969 C 135.765625 16.59375 135.765625 16.316406 135.394531 15.757812 "/>
<path style=" stroke:none;fill-rule:evenodd;fill:rgb(22.479248%,52.099609%,77.11792%);fill-opacity:1;" d="M 149.632812 15.757812 L 151.390625 15.757812 C 151.574219 16.035156 151.664062 16.777344 151.664062 17.515625 C 152.132812 16.59375 153.421875 15.390625 155.734375 15.480469 C 157.953125 15.574219 158.96875 17.425781 158.691406 18.902344 C 158.507812 20.472656 158.046875 24.355469 158.878906 25.101562 L 157.304688 25.101562 C 156.9375 24.632812 156.9375 23.710938 156.9375 22.046875 C 157.027344 20.472656 157.769531 18.257812 156.9375 17.328125 C 155.824219 16.128906 152.5 16.410156 151.664062 18.71875 C 151.113281 20.378906 151.203125 21.027344 151.113281 22.878906 C 151.019531 24.265625 151.203125 24.820312 151.574219 25.101562 L 149.726562 25.101562 C 149.726562 25.101562 149.261719 23.621094 149.632812 21.308594 C 149.816406 20.015625 150.371094 16.867188 149.632812 15.757812 "/>
<path style=" stroke:none;fill-rule:evenodd;fill:rgb(22.479248%,52.099609%,77.11792%);fill-opacity:1;" d="M 131.511719 15.757812 C 132.066406 16.5 131.972656 17.425781 131.972656 17.425781 C 131.972656 17.425781 131.511719 21.027344 131.414062 22.417969 C 131.324219 23.804688 131.324219 24.542969 131.691406 25.101562 L 133.449219 25.101562 C 132.988281 24.632812 132.988281 23.34375 133.082031 22.324219 C 133.175781 20.753906 133.359375 19.277344 133.546875 17.792969 C 133.730469 16.222656 132.4375 15.855469 131.511719 15.757812 "/>
<path style=" stroke:none;fill-rule:evenodd;fill:rgb(22.479248%,52.099609%,77.11792%);fill-opacity:1;" d="M 145.65625 15.757812 C 146.210938 16.5 146.117188 17.425781 146.117188 17.425781 C 146.117188 17.425781 145.65625 21.027344 145.5625 22.417969 C 145.472656 23.804688 145.472656 24.542969 145.84375 25.101562 L 147.507812 25.101562 C 147.039062 24.632812 147.136719 23.34375 147.230469 22.324219 C 147.320312 20.753906 147.507812 19.277344 147.597656 17.792969 C 147.78125 16.222656 146.484375 15.855469 145.65625 15.757812 "/>
<path style=" stroke:none;fill-rule:evenodd;fill:rgb(22.479248%,52.099609%,77.11792%);fill-opacity:1;" d="M 132.4375 12.429688 C 132.988281 12.429688 133.449219 12.894531 133.449219 13.449219 C 133.449219 14.003906 132.988281 14.46875 132.4375 14.46875 C 131.882812 14.46875 131.414062 14.003906 131.414062 13.449219 C 131.414062 12.894531 131.882812 12.429688 132.4375 12.429688 "/>
<path style=" stroke:none;fill-rule:evenodd;fill:rgb(22.479248%,52.099609%,77.11792%);fill-opacity:1;" d="M 146.484375 12.429688 C 147.136719 12.429688 147.597656 12.894531 147.597656 13.449219 C 147.597656 14.003906 147.136719 14.46875 146.484375 14.46875 C 145.933594 14.46875 145.472656 14.003906 145.472656 13.449219 C 145.472656 12.894531 145.933594 12.429688 146.484375 12.429688 "/>
<path style=" stroke:none;fill-rule:evenodd;fill:rgb(22.479248%,52.099609%,77.11792%);fill-opacity:1;" d="M 143.4375 12.429688 C 143.808594 14.28125 143.714844 16.683594 143.714844 17.703125 C 143.621094 18.71875 143.253906 22.136719 143.253906 23.0625 C 143.253906 24.082031 143.34375 24.726562 143.621094 25.101562 L 141.863281 25.101562 C 141.589844 24.632812 141.589844 23.710938 141.679688 22.511719 C 141.773438 20.753906 141.960938 18.441406 142.050781 17.515625 C 142.050781 16.035156 142.144531 12.894531 141.679688 12.429688 L 143.4375 12.429688 "/>
<path style=" stroke:none;fill-rule:evenodd;fill:rgb(22.479248%,52.099609%,77.11792%);fill-opacity:1;" d="M 119.488281 25.101562 L 121.34375 25.101562 C 121.246094 24.726562 121.617188 22.324219 122.726562 20.9375 C 123.929688 19.550781 125.59375 19.921875 126.332031 20.199219 C 126.054688 19.550781 124.945312 18.902344 123.375 19.277344 C 123.929688 17.425781 124.761719 16.867188 124.855469 13.722656 C 126.054688 15.855469 127.070312 23.621094 128.738281 25.101562 L 130.585938 25.101562 C 128.273438 22.785156 127.996094 15.757812 125.867188 12.429688 L 124.019531 12.429688 C 124.300781 15.941406 119.769531 21.214844 119.488281 25.101562 "/>
<path style=" stroke:none;fill-rule:evenodd;fill:rgb(22.479248%,52.099609%,77.11792%);fill-opacity:1;" d="M 167.757812 23.433594 C 167.289062 23.898438 166.734375 25.285156 164.332031 25.375 L 164.332031 24.449219 C 165.625 24.632812 166.734375 24.171875 167.757812 23.433594 Z M 164.332031 15.574219 C 164.699219 15.480469 164.984375 15.480469 165.164062 15.480469 C 166.460938 15.480469 168.679688 16.410156 168.027344 18.441406 C 167.660156 19.828125 165.996094 20.015625 164.332031 20.84375 L 164.332031 20.101562 C 164.796875 19.921875 165.164062 19.734375 165.535156 19.457031 C 166.644531 18.71875 167.015625 17.792969 166.554688 17.148438 C 165.996094 16.410156 165.164062 16.316406 164.332031 16.59375 Z M 164.332031 25.375 C 164.238281 25.375 164.144531 25.375 164.058594 25.375 C 162.019531 25.285156 160.542969 23.433594 160.445312 21.027344 L 160.445312 20.289062 C 160.445312 19.828125 160.542969 19.363281 160.636719 18.902344 C 161.378906 16.316406 163.035156 15.667969 164.332031 15.574219 L 164.332031 16.59375 C 163.78125 16.867188 163.128906 17.328125 162.664062 18.074219 C 162.019531 19.085938 161.835938 20.472656 162.113281 21.675781 C 162.390625 21.027344 163.410156 20.570312 164.332031 20.101562 L 164.332031 20.84375 C 163.683594 21.214844 163.035156 21.675781 162.480469 22.324219 C 162.203125 22.695312 162.761719 23.988281 163.871094 24.265625 C 164.058594 24.355469 164.144531 24.355469 164.332031 24.449219 L 164.332031 25.375 "/>
</g>
</svg>

<svg xmlns="http://www.w3.org/2000/svg" width="176pt" height="42.027" viewBox="0 0 176 31.52"><defs><clipPath id="a"><path d="M0 0h44v31.52H0Zm0 0"/></clipPath></defs><path d="M6.766 26.598c6.601-.36 13.453-3.59 16.27-9.582 1.769-3.758 4.198-6.328 7.183-7.375-4.032.964-6.133 2.152-8.067 4.004-2.87 2.734-2.183 3.535-5.937 7.593-3.649 3.785-8.176 4.946-9.45 5.36" style="stroke:none;fill-rule:evenodd;fill:#299440;fill-opacity:1"/><path d="M24.004 28.008c3.726-1.961 5.883-3.535 7.762-6.711 1.847-3.149 1.324-6.988 3.754-9.918-1.489 5.36 1.078 7.871-2.208 12.566-3.207 4.559-9.308 4.063-9.308 4.063" style="stroke:none;fill-rule:evenodd;fill:#ef4e1e;fill-opacity:1"/><g clip-path="url(#a)"><path d="M41.984 1.27a.28.28 0 0 1 .278.277c0 .164-.114.273-.278.273v2.211c.055-.191.082-.386.11-.578.304-2.101.773-2.875 1.41-3.453-.55.055-1.106.387-1.52.8Zm0 .55c-.164 0-.277-.11-.277-.273a.28.28 0 0 1 .277-.277V.8a3.4 3.4 0 0 0-.636.856c-.47 0-1.16.387-1.407 1.16-.14.47-.472.664-.472.664s.832-.085 1.078-.828c.14-.445.469-.746.746-.832-.66 1.274-.469 3.48-3.922 5.414-4.445 2.211-9.086 2.266-11.793 7.239-1.215 2.238-2.156 4.972-4.254 7.238C15.277 28.28 6.711 30.633 0 31.516c8.563.109 19.281-1.797 26.656-7.07 4.25-3.067 4.969-6.356 6.297-10.25 1.629-4.75 7.68-4.587 9.031-10.165z" style="stroke:none;fill-rule:evenodd;fill:#d91740;fill-opacity:1"/></g><path d="M37.922 21.96c-.035 1.622 1.805 2.653 3.871 2.692 2.023.035 2.91-.773 3.203-1.879.957-3.832-8.398-4.164-6.262-8.77 1.18-2.503 4.973-2.097 6.52-1.472 1.586.625 1.547 1.547 1.476 2.32-.406-1.398-2.359-2.136-4.68-1.73-2.874.477-2.507 3.168 1.067 4.79 1.88.847 4.313 2.062 4.051 4.382-.406 3.832-6.703 4.645-8.914 2.176-.441-.48-.664-1.364-.332-2.508M48.977 15.7h1.84c.296.257.296.773.296 1.03.477-.515.883-.996 1.88-1.105.991-.11 1.507.48 1.69.738-1.175-.441-2.39-.258-3.425 2.172-.367.922-.625 2.727-.7 4.645-.074 1.433.149 2.058.481 2.39H49.16c-.074 0-.515-1.62-.148-4.015.332-2.356.332-2.688.367-3.72 0-1.288.039-1.546-.402-2.136" style="stroke:none;fill-rule:evenodd;fill:#3985c5;fill-opacity:1"/><path d="M74.688 15.7h1.843c.293.257.332 1.066.332 1.878.516-.957 1.88-2.246 4.274-2.137 2.394.075 3.386 2.028 3.129 3.61-.258 1.62-.625 5.746.222 6.52h-1.62c-.477-.477-.477-1.509-.442-3.204.07-1.73.847-4.015.039-4.972-1.184-1.329-4.754-1.032-5.602 1.472-.554 1.695-.515 2.395-.59 4.313-.074 1.433.145 2.058.477 2.39h-1.875c-.074 0-.516-1.62-.148-4.015.183-1.325.847-4.64-.04-5.856M104.86 15.7h1.843c.293.257.328 1.066.328 1.878.52-.957 1.88-2.246 4.278-2.137 2.355.075 3.386 2.028 3.129 3.61-.258 1.62-.665 5.746.222 6.52h-1.656c-.442-.477-.442-1.509-.406-3.204.035-1.73.847-4.015 0-4.972-1.18-1.329-4.715-1.032-5.567 1.472-.59 1.695-.511 2.395-.59 4.313-.07 1.433.153 2.058.485 2.39h-1.918c-.035 0-.48-1.62-.149-4.015.223-1.325.852-4.64 0-5.856" style="stroke:none;fill-rule:evenodd;fill:#274695;fill-opacity:1"/><path d="M55.496 15.7c.59.808.477 1.73.477 1.73s-.516 3.797-.586 5.304c-.075 1.438-.04 2.25.293 2.836h1.804c-.48-.55-.402-1.875-.367-2.945.11-1.66.293-3.242.477-4.754.187-1.695-1.18-2.023-2.098-2.172M56.414 12.234c.59 0 1.11.48 1.11 1.07 0 .626-.52 1.106-1.11 1.106-.586 0-1.066-.48-1.066-1.105 0-.59.48-1.07 1.066-1.07" style="stroke:none;fill-rule:evenodd;fill:#3985c5;fill-opacity:1"/><path d="M65.48 17.281s.883-1.691 3.72-1.84c2.835-.148 3.464.664 3.905 1.473.477.813-.296 3.5-.37 5.195-.036 1.657-.036 2.875.406 3.461h-1.805c-.184-.66-.258-1.508-.258-2.43 0-.956.149-2.91.258-3.718-.258.328-1.254.77-2.469 1.14-1.25.368-3.758 1.399-3.02 3.204.407.996 1.512 1.18 2.544.922.847-.184 1.582-.625 1.988-1.032-.074.149-.223.332-.332.48-.55.59-1.438 1.141-2.762 1.434-1.695.336-2.875-.144-4.347-.218-1.512-.075-3.208.218-3.208.218s-.402-.734-.292-2.574c.109-1.844.48-4.129.48-6.152.07-1.883.11-3.688-.371-4.61h1.808c.11.446.403 1.918.293 4.864-.109 2.91-.628 4.828-.441 7.039 3.61-.188 3.574.922 5.082.996-.406-.149-.773-.336-1.07-.703-.844-.957-1.067-2.395.039-3.426 1.14-1.067 6.078-1.363 6.187-2.984.188-2.247-3.61-2.286-5.965-.739M95.652 17.281s.883-1.691 3.758-1.84c2.836-.148 3.426.664 3.903 1.473.44.813-.333 3.5-.368 5.195-.074 1.657-.039 2.875.368 3.461h-1.766c-.188-.66-.262-1.508-.262-2.43 0-.956.149-2.91.262-3.718-.297.328-1.254.808-2.508 1.176-1.215.367-3.719 1.218-2.984 3.168.738 1.953 3.761.664 4.496-.07-.922 1.695-4.016 2.945-5.563 1.175-.812-.957-.922-2.613.59-3.867 1.473-1.254 5.93-1.363 6.078-2.984.184-2.247-3.613-2.286-6.004-.739" style="stroke:none;fill-rule:evenodd;fill:#274695;fill-opacity:1"/><path d="M94.805 15.477c-2.727.812-3.54 2.394-5.344 4.273 1.66 1.586 2.469 4.793 4.789 5.82h-1.988c-2.395-1.508-2.95-4.566-4.532-5.78-.148 1.398-.293 2.983-.293 3.648 0 1.03.075 1.765.403 2.132H86c-.332-.55-.332-1.508-.262-2.726.114-1.914.371-4.27.407-5.301.039-1.586.113-4.793-.329-5.309h1.84c.332 1.918.258 4.461.223 5.528 0 .37-.074 1.031-.149 1.804 1.954-1.507 2.727-3.941 7.075-4.09" style="stroke:none;fill-rule:evenodd;fill:#274695;fill-opacity:1"/><path d="M169.23 22.602c0 1.109 1.297 1.847 2.872 1.941 1.476 0 2.12-.555 2.304-1.387.742-2.683-6.187-2.957-4.617-6.195.922-1.848 3.695-1.57 4.809-1.106 1.203.461 1.203 1.106 1.105 1.66-.273-1.015-1.754-1.66-3.422-1.199-2.12.551-1.386 2.22 1.02 3.235 1.297.55 2.863 1.574 2.683 3.234-.28 2.774-4.808 3.332-6.472 1.57-.282-.367-.559-.921-.282-1.753M135.395 15.758h1.757c.274.277.274.742.274 1.02.469-.555.836-1.02 1.758-1.11.921-.094 1.476.46 1.574.742-1.113-.469-2.219-.281-3.238 2.031-.368.836-.555 2.586-.649 4.438-.09 1.387.188 1.941.465 2.223h-1.852s-.464-1.48-.09-3.793c.372-2.223.278-2.59.372-3.516 0-1.2 0-1.477-.371-2.035M149.633 15.758h1.758c.183.277.273 1.02.273 1.758.469-.922 1.758-2.125 4.07-2.036 2.22.094 3.235 1.946 2.957 3.422-.183 1.57-.644 5.453.188 6.2h-1.574c-.368-.47-.368-1.391-.368-3.055.09-1.574.833-3.79 0-4.719-1.113-1.2-4.437-.918-5.273 1.39-.55 1.66-.46 2.31-.55 4.16-.094 1.388.09 1.942.46 2.224h-1.847s-.465-1.48-.094-3.793c.183-1.293.738-4.442 0-5.551M131.512 15.758c.554.742.46 1.668.46 1.668s-.46 3.601-.558 4.992c-.09 1.387-.09 2.125.277 2.684h1.758c-.46-.47-.46-1.758-.367-2.778.094-1.57.277-3.047.465-4.531.183-1.57-1.11-1.938-2.035-2.035M145.656 15.758c.555.742.461 1.668.461 1.668s-.46 3.601-.554 4.992c-.09 1.387-.09 2.125.28 2.684h1.665c-.469-.47-.371-1.758-.278-2.778.09-1.57.278-3.047.368-4.531.183-1.57-1.114-1.938-1.942-2.035M132.438 12.43c.55 0 1.011.465 1.011 1.02s-.46 1.019-1.012 1.019a1.034 1.034 0 0 1-1.023-1.02c0-.554.469-1.02 1.024-1.02M146.484 12.43c.653 0 1.114.465 1.114 1.02s-.461 1.019-1.114 1.019c-.55 0-1.011-.465-1.011-1.02s.46-1.02 1.011-1.02M143.438 12.43c.37 1.851.277 4.254.277 5.273-.094 1.016-.461 4.434-.461 5.36 0 1.019.09 1.664.367 2.039h-1.758c-.273-.47-.273-1.391-.183-2.59.093-1.758.28-4.07.37-4.996 0-1.48.095-4.621-.37-5.086zM119.488 25.102h1.856c-.098-.375.273-2.778 1.383-4.164 1.203-1.387 2.867-1.016 3.605-.739-.277-.648-1.387-1.297-2.957-.922.555-1.851 1.387-2.41 1.48-5.554 1.2 2.132 2.215 9.898 3.883 11.379h1.848c-2.313-2.317-2.59-9.344-4.719-12.672h-1.847c.28 3.511-4.25 8.785-4.532 12.672M167.758 23.434c-.469.464-1.024 1.851-3.426 1.941v-.926c1.293.184 2.402-.277 3.426-1.015m-3.426-7.86c.367-.094.652-.094.832-.094 1.297 0 3.516.93 2.863 2.961-.367 1.387-2.03 1.575-3.695 2.403v-.742c.465-.18.832-.368 1.203-.645 1.11-.738 1.48-1.664 1.02-2.309-.559-.738-1.39-.832-2.223-.554Zm0 9.801h-.273c-2.04-.09-3.516-1.941-3.614-4.348v-.738c0-.46.098-.926.192-1.387.742-2.586 2.398-3.234 3.695-3.328v1.02c-.55.273-1.203.734-1.668 1.48-.644 1.012-.828 2.399-.55 3.602.277-.649 1.296-1.106 2.218-1.574v.742c-.648.37-1.297.832-1.852 1.48-.277.371.282 1.664 1.391 1.942.188.09.274.09.461.183z" style="stroke:none;fill-rule:evenodd;fill:#3985c5;fill-opacity:1"/></svg>
